app/img/_src/main/advantages-of-lab/adv-4.svg

<svg width="60" height="60" viewBox="0 0 60 60" fill="none" xmlns="http://www.w3.org/2000/svg">
<g clip-path="url(#clip0)">
<path d="M57.5299 25.0672L56.7581 24.49C55.7968 23.7704 55.4558 22.4969 55.9282 21.3932L56.3082 20.5075C57.0799 18.7053 56.9605 16.698 55.9804 15.0006C54.9999 13.3028 53.3217 12.1955 51.3749 11.9634L50.4182 11.8489C49.2257 11.7066 48.2932 10.7741 48.1509 9.58211L48.0369 8.62494C47.8043 6.67854 46.697 4.99993 44.9996 4.01987C43.3018 3.03935 41.2945 2.91987 39.4928 3.69211L38.6066 4.07159C37.5029 4.54446 36.2294 4.20297 35.5098 3.24168L34.9326 2.47035C33.758 0.900689 31.9604 0.000732422 29.9998 0.000732422C28.0392 0.000732422 26.2416 0.900689 25.0669 2.47035L24.4893 3.24168C23.7697 4.20343 22.4966 4.54446 21.3925 4.07159L20.5067 3.69211C18.7045 2.92033 16.6973 3.03935 14.9999 4.01987C13.3021 4.99993 12.1947 6.67854 11.9626 8.62494L11.8482 9.58166C11.7058 10.7741 10.7734 11.7066 9.58092 11.8489L8.6242 11.9634C6.6778 12.1955 4.9992 13.3028 4.01913 15.0006C3.03861 16.698 2.91959 18.7053 3.69138 20.5075L4.07086 21.3932C4.54373 22.4969 4.20224 23.7704 3.24094 24.49L2.46962 25.0672C0.900414 26.2418 0 28.0399 0 30.0001C0 31.9606 0.900414 33.7587 2.46962 34.9333L3.2414 35.5106C4.2027 36.2302 4.54373 37.5037 4.07132 38.6073L3.69138 39.4931C2.91959 41.2953 3.03907 43.3026 4.01913 44.9999C4.99966 46.6978 6.6778 47.8051 8.62466 48.0372L9.58138 48.1516C10.7738 48.294 11.7063 49.2264 11.8487 50.4185L11.9626 51.3756C12.1952 53.322 13.3025 55.0006 14.9999 55.9807C16.6977 56.9608 18.705 57.0802 20.5067 56.3085L21.393 55.929C22.4966 55.4561 23.7701 55.7976 24.4897 56.7589L25.0669 57.5302C26.2416 59.0999 28.0396 60.0003 30.0002 60.0003C31.9604 60.0003 33.7584 59.0999 34.933 57.5302L35.5103 56.7589C36.2299 55.7976 37.5029 55.4561 38.6075 55.9294L39.4933 56.3085C41.295 57.0802 43.3023 56.9612 45.0001 55.9812C46.6975 55.0006 47.8048 53.322 48.0373 51.3756L48.1513 50.4189C48.2937 49.2264 49.2261 48.294 50.4186 48.1516L51.3753 48.0376C53.3217 47.8051 55.0008 46.6978 55.9809 45.0004C56.9609 43.3026 57.0804 41.2953 56.3082 39.4931L55.9291 38.6078C55.4563 37.5037 55.7973 36.2302 56.759 35.5106L57.5304 34.9333C59.1 33.7587 60 31.9606 60 30.0005C59.9995 28.0399 59.0991 26.2418 57.5299 25.0672ZM56.1255 33.057L55.3542 33.6342C53.5236 35.0038 52.8736 37.4286 53.7745 39.5306L54.1535 40.4159C54.6318 41.5324 54.5577 42.7761 53.9507 43.8281C53.3432 44.8805 52.3032 45.5662 51.097 45.7104L50.1403 45.8244C47.8698 46.0954 46.0951 47.8706 45.8241 50.141L45.7096 51.0978C45.5654 52.304 44.8797 53.344 43.8278 53.9514C42.7758 54.5584 41.5321 54.6326 40.4156 54.1542L39.5299 53.7747C37.4278 52.8743 35.0035 53.5244 33.6335 55.3549L33.0562 56.1263C32.3284 57.0985 31.2142 57.6566 29.9998 57.6566C28.7849 57.6566 27.6707 57.0985 26.9428 56.1263L26.3656 55.3549C25.4084 54.0755 23.9363 53.3728 22.4193 53.3728C21.7651 53.3728 21.1027 53.5038 20.4697 53.7747L19.5839 54.1542C18.467 54.6326 17.2237 54.5584 16.1713 53.9514C15.1194 53.344 14.4336 52.304 14.2894 51.0978L14.1755 50.141C13.904 47.8706 12.1293 46.0958 9.85878 45.8248L8.90206 45.7104C7.69586 45.5662 6.65583 44.8805 6.04838 43.8285C5.44139 42.7766 5.36724 41.5329 5.8456 40.4164L6.22508 39.5306C7.12549 37.429 6.47547 35.0043 4.64535 33.6342L3.87357 33.057C2.90128 32.3291 2.34373 31.2149 2.34373 30.0001C2.34373 28.7856 2.90128 27.6714 3.87402 26.9436L4.64535 26.3664C6.47593 24.9963 7.12595 22.5715 6.22508 20.4699L5.84605 19.5842C5.36769 18.4677 5.44185 17.224 6.04884 16.172C6.65629 15.1201 7.69632 14.4344 8.90252 14.2902L9.85924 14.1757C12.1297 13.9047 13.9045 12.13 14.1755 9.85952L14.2899 8.9028C14.4341 7.6966 15.1198 6.65657 16.1717 6.04912C17.2237 5.44167 18.4674 5.36797 19.5839 5.84633L20.4697 6.22536C22.5712 7.12577 24.996 6.47621 26.3661 4.64563L26.9433 3.8743C27.6711 2.90202 28.7853 2.34401 29.9998 2.34401C31.2142 2.34401 32.3284 2.90202 33.0562 3.8743L33.6339 4.64608C35.0035 6.47667 37.4288 7.12623 39.5299 6.22581L40.4156 5.84633C41.5321 5.36797 42.7758 5.44213 43.8278 6.04912C44.8797 6.65657 45.5659 7.6966 45.7096 8.9028L45.8241 9.85952C46.0951 12.13 47.8703 13.9047 50.1403 14.1757L51.097 14.2902C52.3032 14.4344 53.3432 15.1201 53.9507 16.172C54.5581 17.224 54.6318 18.4677 54.1539 19.5842L53.7745 20.4699C52.874 22.572 53.5236 24.9963 55.3542 26.3664L56.1255 26.9436C57.0982 27.6714 57.6558 28.7856 57.6558 30.0005C57.6558 31.2149 57.0982 32.3291 56.1255 33.057Z" fill="#8888D3"/>
<path d="M29.9998 6.81128C26.4645 6.81128 23.0698 7.58672 19.9103 9.1161C19.3276 9.39808 19.084 10.0989 19.3656 10.6812C19.6475 11.2639 20.3488 11.5074 20.9311 11.2255C23.7697 9.85172 26.8206 9.15501 29.9998 9.15501C41.4937 9.15501 50.8448 18.5061 50.8448 30.0005C50.8448 41.4944 41.4937 50.8455 29.9998 50.8455C18.5054 50.8455 9.15431 41.4944 9.15431 30.0005C9.15431 25.2924 10.6855 20.8503 13.5827 17.1539C13.9818 16.6444 13.8926 15.9079 13.3831 15.5083C12.8736 15.1091 12.1371 15.1988 11.7379 15.7078C8.51482 19.8213 6.81104 24.7633 6.81104 30.0005C6.81104 42.7866 17.2136 53.1892 29.9998 53.1892C42.7859 53.1892 53.1885 42.7866 53.1885 30.0005C53.1885 17.2139 42.7859 6.81128 29.9998 6.81128Z" fill="#8888D3"/>
<path d="M12.866 24.0336L11.9733 25.1716C11.5737 25.6811 11.663 26.4176 12.172 26.8168C12.6815 27.2164 13.418 27.1276 13.8172 26.6181L14.3075 25.9937V33.7441H13.5229C12.8756 33.7441 12.351 34.2687 12.351 34.916C12.351 35.5633 12.8756 36.0879 13.5229 36.0879H17.3955C18.0424 36.0879 18.5674 35.5633 18.5674 34.916C18.5674 34.2687 18.0424 33.7441 17.3955 33.7441H16.6512V24.7568C16.6512 24.1096 16.1262 23.585 15.4793 23.585H13.7879C13.4281 23.585 13.088 23.7502 12.866 24.0336Z" fill="#8888D3"/>
<path d="M22.2829 36.0879H22.8917C24.8271 36.0879 26.4014 34.5136 26.4014 32.5782V26.8978C26.4014 24.9624 24.8267 23.3877 22.8917 23.3877H22.2829C20.3474 23.3877 18.7732 24.9624 18.7732 26.8978V32.5782C18.7732 34.5136 20.3474 36.0879 22.2829 36.0879ZM21.1169 26.8978C21.1169 26.2547 21.6402 25.7314 22.2829 25.7314H22.8917C23.5344 25.7314 24.0576 26.2547 24.0576 26.8978V32.5782C24.0576 33.2209 23.5344 33.7441 22.8917 33.7441H22.2829C21.6402 33.7441 21.1169 33.2209 21.1169 32.5782V26.8978Z" fill="#8888D3"/>
<path d="M31.7269 36.0879C33.6623 36.0879 35.2366 34.5136 35.2366 32.5782V26.8978C35.2366 24.9624 33.6619 23.3877 31.7269 23.3877H31.1181C29.1826 23.3877 27.6084 24.9624 27.6084 26.8978V32.5782C27.6084 34.5136 29.1826 36.0879 31.1181 36.0879H31.7269ZM29.9521 32.5782V26.8978C29.9521 26.2547 30.4754 25.7314 31.1181 25.7314H31.7269C32.3696 25.7314 32.8928 26.2547 32.8928 26.8978V32.5782C32.8928 33.2209 32.3696 33.7441 31.7269 33.7441H31.1181C30.4754 33.7441 29.9521 33.2214 29.9521 32.5782Z" fill="#8888D3"/>
<path d="M47.203 23.2455C46.6798 22.8651 45.9469 22.9809 45.5661 23.5041L38.1201 33.7438C37.7392 34.2675 37.855 35.0004 38.3787 35.3808C38.5865 35.5319 38.8278 35.6051 39.0667 35.6051C39.4288 35.6051 39.7863 35.4376 40.0157 35.1222L47.4617 24.8824C47.8425 24.3592 47.7262 23.6263 47.203 23.2455Z" fill="#8888D3"/>
<path d="M19.4448 18.7828C19.7181 18.7828 19.9927 18.6876 20.2147 18.4939C22.9238 16.1282 26.3986 14.8254 29.9998 14.8254C33.3689 14.8254 36.5462 15.9231 39.1884 17.9995C39.6975 18.3996 40.434 18.3113 40.8341 17.8022C41.2337 17.2937 41.1454 16.5567 40.6368 16.157C37.5771 13.7524 33.899 12.4817 29.9998 12.4817C25.8319 12.4817 21.8091 13.99 18.6735 16.7283C18.1859 17.1541 18.1356 17.8943 18.5613 18.3818C18.7929 18.6473 19.1179 18.7828 19.4448 18.7828Z" fill="#8888D3"/>
<path d="M19.2292 43.2627C22.2879 45.6669 25.9665 46.9376 29.8657 46.9376C32.5711 46.9376 35.1611 46.3279 37.5643 45.1258C38.1429 44.8365 38.3773 44.1324 38.088 43.5534C37.7982 42.9748 37.0947 42.7404 36.5156 43.0297C34.441 44.0679 32.2035 44.5939 29.8657 44.5939C26.4971 44.5939 23.3193 43.4966 20.6771 41.4197C20.1685 41.0201 19.4315 41.1085 19.0319 41.617C18.6318 42.1261 18.7202 42.8626 19.2292 43.2627Z" fill="#8888D3"/>
<path d="M41.5075 41.2582C41.2484 40.87 40.7632 40.6686 40.305 40.7602C39.8188 40.8577 39.4361 41.2642 39.3716 41.7563C39.3084 42.2342 39.5565 42.7153 39.9813 42.9423C40.4079 43.1708 40.9444 43.108 41.3084 42.789C41.746 42.404 41.8238 41.7421 41.5075 41.2582Z" fill="#8888D3"/>
<path d="M39.518 23.0215C37.9973 23.0215 36.76 24.2584 36.76 25.7791C36.76 27.2997 37.9973 28.5371 39.518 28.5371C41.0383 28.5371 42.2756 27.2997 42.2756 25.7791C42.2756 24.2584 41.0383 23.0215 39.518 23.0215ZM39.518 26.1933C39.2896 26.1933 39.1038 26.0075 39.1038 25.7791C39.1038 25.5506 39.2896 25.3648 39.518 25.3648C39.7465 25.3648 39.9319 25.5506 39.9319 25.7791C39.9319 26.0075 39.7465 26.1933 39.518 26.1933Z" fill="#8888D3"/>
<path d="M43.2643 32.9211C43.2643 34.4418 44.5016 35.6791 46.0219 35.6791C47.5425 35.6791 48.7799 34.4418 48.7799 32.9211C48.7799 31.4004 47.5425 30.1631 46.0219 30.1631C44.5016 30.1631 43.2643 31.4004 43.2643 32.9211ZM46.4361 32.9211C46.4361 33.1495 46.2507 33.3354 46.0223 33.3354C45.7939 33.3354 45.608 33.1495 45.608 32.9211C45.608 32.6927 45.7939 32.5068 46.0223 32.5068C46.2507 32.5068 46.4361 32.6927 46.4361 32.9211Z" fill="#8888D3"/>
<path d="M15.1724 13.2952C15.361 13.7479 15.8215 14.04 16.3113 14.0171C16.7947 13.9942 17.2195 13.6637 17.3687 13.205C17.5194 12.7417 17.3555 12.2126 16.9673 11.9173C16.5713 11.6161 16.0183 11.5987 15.6036 11.8729C15.1413 12.1782 14.9637 12.7857 15.1724 13.2952Z" fill="#8888D3"/>
</g>
<defs>
<clipPath id="clip0">
<rect width="60" height="60" fill="white"/>
</clipPath>
</defs>
</svg>

<svg width="60" height="60" fill="none" xmlns="http://www.w3.org/2000/svg"><g clip-path="url(#clip0)" fill="#8888D3"><path d="M57.53 25.067l-.772-.577a2.587 2.587 0 01-.83-3.097l.38-.886a6.11 6.11 0 00-.328-5.506 6.108 6.108 0 00-4.605-3.038l-.957-.114a2.586 2.586 0 01-2.267-2.267l-.114-.957A6.11 6.11 0 0045 4.02a6.107 6.107 0 00-5.507-.328l-.886.38a2.586 2.586 0 01-3.097-.83l-.577-.772A6.108 6.108 0 0030 0c-1.96 0-3.758.9-4.933 2.47l-.578.772a2.585 2.585 0 01-3.097.83l-.885-.38A6.108 6.108 0 0015 4.02a6.107 6.107 0 00-3.037 4.605l-.115.957a2.586 2.586 0 01-2.267 2.267l-.957.114a6.107 6.107 0 00-4.605 3.038 6.108 6.108 0 00-.328 5.507l.38.885a2.586 2.586 0 01-.83 3.097l-.771.577A6.11 6.11 0 000 30c0 1.96.9 3.759 2.47 4.933l.771.578a2.587 2.587 0 01.83 3.096l-.38.886A6.11 6.11 0 004.02 45a6.108 6.108 0 004.606 3.037l.956.115a2.586 2.586 0 012.268 2.267l.114.957A6.11 6.11 0 0015 55.98a6.11 6.11 0 005.507.328l.886-.38a2.586 2.586 0 013.097.83l.577.771A6.109 6.109 0 0030 60c1.96 0 3.758-.9 4.933-2.47l.577-.771a2.586 2.586 0 013.098-.83l.885.38A6.11 6.11 0 0045 55.98a6.111 6.111 0 003.037-4.605l.114-.957a2.586 2.586 0 012.268-2.267l.956-.114A6.11 6.11 0 0055.981 45a6.11 6.11 0 00.327-5.507l-.379-.885a2.586 2.586 0 01.83-3.097l.771-.578A6.108 6.108 0 0060 30c0-1.96-.9-3.758-2.47-4.933zm-1.404 7.99l-.772.577a4.922 4.922 0 00-1.58 5.897l.38.885a3.786 3.786 0 01-.203 3.412 3.785 3.785 0 01-2.854 1.882l-.957.114a4.923 4.923 0 00-4.316 4.317l-.114.957a3.786 3.786 0 01-1.882 2.853 3.786 3.786 0 01-3.412.203l-.886-.38a4.924 4.924 0 00-5.897 1.58l-.577.772A3.786 3.786 0 0130 57.656a3.787 3.787 0 01-3.057-1.53l-.577-.771a4.922 4.922 0 00-5.896-1.58l-.886.38a3.787 3.787 0 01-3.413-.204 3.786 3.786 0 01-1.882-2.853l-.114-.957a4.923 4.923 0 00-4.316-4.316l-.957-.115a3.786 3.786 0 01-2.854-1.882 3.786 3.786 0 01-.202-3.412l.38-.885c.9-2.102.25-4.527-1.58-5.897l-.772-.577A3.786 3.786 0 012.344 30c0-1.214.557-2.329 1.53-3.056l.771-.578a4.923 4.923 0 001.58-5.896l-.379-.886a3.786 3.786 0 01.203-3.412 3.786 3.786 0 012.854-1.882l.956-.114a4.922 4.922 0 004.316-4.316l.115-.957a3.786 3.786 0 011.882-2.854 3.785 3.785 0 013.412-.203l.886.38c2.101.9 4.526.25 5.896-1.58l.577-.772A3.786 3.786 0 0130 2.344c1.214 0 2.328.558 3.056 1.53l.578.772a4.923 4.923 0 005.896 1.58l.886-.38a3.786 3.786 0 013.412.203 3.784 3.784 0 011.882 2.854l.114.957a4.923 4.923 0 004.316 4.316l.957.114a3.786 3.786 0 012.854 1.882 3.786 3.786 0 01.203 3.412l-.38.886a4.923 4.923 0 001.58 5.896l.772.578A3.785 3.785 0 0157.656 30a3.785 3.785 0 01-1.53 3.057z"/><path d="M30 6.811c-3.535 0-6.93.776-10.09 2.305a1.172 1.172 0 101.021 2.11A20.647 20.647 0 0130 9.155c11.494 0 20.845 9.351 20.845 20.846 0 11.493-9.351 20.845-20.845 20.845-11.495 0-20.846-9.352-20.846-20.845 0-4.709 1.531-9.15 4.429-12.847a1.172 1.172 0 00-1.845-1.446C8.515 19.82 6.81 24.763 6.81 30c0 12.787 10.403 23.19 23.189 23.19S53.188 42.786 53.188 30C53.188 17.215 42.786 6.811 30 6.811z"/><path d="M12.866 24.034l-.893 1.138a1.172 1.172 0 101.844 1.446l.49-.624v7.75h-.784a1.172 1.172 0 100 2.344h3.872a1.172 1.172 0 000-2.344h-.744v-8.987c0-.647-.525-1.172-1.172-1.172h-1.691c-.36 0-.7.165-.922.449zm9.417 12.054h.609a3.513 3.513 0 003.51-3.51v-5.68a3.514 3.514 0 00-3.51-3.51h-.61a3.514 3.514 0 00-3.509 3.51v5.68a3.513 3.513 0 003.51 3.51zm-1.166-9.19c0-.643.523-1.167 1.166-1.167h.609c.642 0 1.166.524 1.166 1.167v5.68c0 .643-.524 1.166-1.166 1.166h-.61a1.168 1.168 0 01-1.165-1.166v-5.68zm10.61 9.19a3.513 3.513 0 003.51-3.51v-5.68a3.514 3.514 0 00-3.51-3.51h-.609a3.514 3.514 0 00-3.51 3.51v5.68a3.513 3.513 0 003.51 3.51h.609zm-1.775-3.51v-5.68c0-.643.523-1.167 1.166-1.167h.609c.643 0 1.166.524 1.166 1.167v5.68c0 .643-.523 1.166-1.166 1.166h-.609a1.167 1.167 0 01-1.166-1.166zm17.251-9.333a1.172 1.172 0 00-1.637.26L38.12 33.743a1.171 1.171 0 101.896 1.378l7.446-10.24a1.172 1.172 0 00-.259-1.637zm-27.758-4.462c.273 0 .548-.095.77-.29A14.872 14.872 0 0130 14.826c3.369 0 6.546 1.098 9.188 3.175a1.172 1.172 0 101.449-1.843A17.054 17.054 0 0030 12.482c-4.168 0-8.19 1.508-11.326 4.246a1.172 1.172 0 00.77 2.055zm-.215 24.48a17.052 17.052 0 0010.636 3.675c2.705 0 5.295-.61 7.698-1.812a1.172 1.172 0 00-1.048-2.096 14.727 14.727 0 01-6.65 1.564 14.73 14.73 0 01-9.189-3.174 1.172 1.172 0 00-1.448 1.843zm22.278-2.005a1.184 1.184 0 00-1.203-.498 1.184 1.184 0 00-.933.996c-.064.478.184.96.61 1.186a1.18 1.18 0 001.326-.153 1.187 1.187 0 00.2-1.53zm-1.99-18.237a2.76 2.76 0 00-2.758 2.758 2.761 2.761 0 002.758 2.758 2.761 2.761 0 002.758-2.758 2.76 2.76 0 00-2.758-2.758zm0 3.172a.415.415 0 110-.829.415.415 0 010 .83zm3.746 6.728a2.761 2.761 0 002.758 2.758 2.761 2.761 0 002.758-2.758 2.761 2.761 0 00-2.758-2.758 2.761 2.761 0 00-2.758 2.758zm3.172 0a.414.414 0 11-.829 0 .414.414 0 01.83 0zM15.172 13.295c.189.453.65.745 1.14.722a1.182 1.182 0 001.057-.812 1.18 1.18 0 00-.402-1.288 1.186 1.186 0 00-1.363-.044c-.463.305-.64.913-.432 1.422z"/></g><defs><clipPath id="clip0"><path fill="#fff" d="M0 0h60v60H0z"/></clipPath></defs></svg>
